X: 4
T: Maid I Never Forgot, The
Z: JACKB
S: https://thesession.org/tunes/269#setting24076
R: reel
M: 4/4
L: 1/8
K: Emin
|:E3F G3A|B2 Ad dBAc|BGEF GAB^c|d2 e^c dBAF|
E3F G3A|B2 Ad dBAc|BGEF GAB^c|dBAF GE E2:|
|:B3d e3f|geaf gfed|BGEF GAB^c|d2 e^c dBAF|
E2 BE dEBE|B2 Ad dBAc|BGEF GAB^c|dBAF GE E2:|

